actions/22x22-dark/color-picker-white.svg

<svg xmlns="http://www.w3.org/2000/svg" viewBox="0 0 22 22">
 <defs id="defs3051">
   <style type="text/css" id="current-color-scheme">
     .ColorScheme-Text {
       color:#f2f2f2;
     }
     </style>
 </defs>
   <path
      style="fill:currentColor;fill-opacity:1;stroke:none"
      d="m9.7070312 3c-.1275207 0-.2555783.0629165-.328125.1894531l-4.3925781 7.6621089c-.9231132 1.619674-.9944132 3.67787 0 5.41211 1.4948666 2.607033 4.8206884 3.508558 7.4277339 2.013672 2.60704-1.49486 3.508559-4.818715 2.013672-7.425782l-4.392578-7.6621089c-.0725561-.1265366-.2006039-.1894531-.3281248-.1894531zm5.6933598.0410156c-1.287627 0-2.333985 1.0463578-2.333985 2.3339844 0 1.2876199 1.046358 2.3339844 2.333985 2.3339844 1.28762 0 2.333984-1.0463645 2.333984-2.3339844 0-1.2876266-1.046364-2.3339844-2.333984-2.3339844zm0 .5839844c.97454 0 1.75.7754534 1.75 1.75 0 .9745399-.77546 1.75-1.75 1.75-.974547 0-1.75-.7754601-1.75-1.75 0-.9745466.775453-1.75 1.75-1.75z"
      class="ColorScheme-Text" />
</svg>

<svg xmlns="http://www.w3.org/2000/svg" viewBox="0 0 22 22">
  <defs id="defs3051">
    <style type="text/css" id="current-color-scheme">
      .ColorScheme-Text {
        color:#f2f2f2
      }
      </style>
  </defs>
    <path
       style="fill:currentColor;fill-opacity:1;stroke:none"
       class="ColorScheme-Text"
       d="M 9.7070312 3 C 9.5795105 3 9.4514529 3.0629165 9.3789062 3.1894531 L 4.9863281 10.851562 C 4.0632149 12.471236 3.9919149 14.529432 4.9863281 16.263672 C 6.4811947 18.870705 9.8070165 19.77223 12.414062 18.277344 C 15.021102 16.782484 15.922621 13.458629 14.427734 10.851562 L 10.035156 3.1894531 C 9.9625999 3.0629165 9.8345521 3 9.7070312 3 z M 15.400391 3.0410156 C 14.112764 3.0410156 13.066406 4.0873734 13.066406 5.375 C 13.066406 6.6626199 14.112764 7.7089844 15.400391 7.7089844 C 16.688011 7.7089844 17.734375 6.6626199 17.734375 5.375 C 17.734375 4.0873734 16.688011 3.0410156 15.400391 3.0410156 z M 15.400391 3.625 C 16.374931 3.625 17.150391 4.4004534 17.150391 5.375 C 17.150391 6.3495399 16.374931 7.125 15.400391 7.125 C 14.425844 7.125 13.650391 6.3495399 13.650391 5.375 C 13.650391 4.4004534 14.425844 3.625 15.400391 3.625 z "
        />
</svg>
